X: 39796
T: Theme For Scotland
R: waltz
M: 3/4
K: Dmajor
V:1
FE|D2 DE FA|B2 F2 Bc|B2 Bd BA|F2 A2 Bd|
V:2
fe|d2 de ff|f2 d2 f2|g2 g2 g2|d4 f2|
V:1
eE E2 D2|F2 E2 DE|F2 B2 AF|E2 F2:|
V:2
g6|d2 c4|d2 f2 fd|c2 A2:|
V:1
de|f2 fg fe|de f2 fe|d2 c2 Bd|BA F2 ef|
V:2
z2|[d6B6]|[f6B6]|[d6G6]|[d4A4] cd|
V:1
g2 gf ed|f2 e2 de|f2 b2 ba|b4 ae|
V:2
e2 ed cB|d2 c2 Bc|d2 g2 gf|g4 c2|
V:1
fe d2 de|f2 AF ED|E2 F2 FE|D2 DE FA|
V:2
[d4A4] [f2d2B2]|[d2B2] [d4A4]|c2 d2 dc|d2 de ff|
V:1
BA F2 DE/F/|E2 D2 D2|D6|D4||
V:2
gf d2 A2|dc BA d2|f6|f4||

